X:136
T: Kuckuks Fall
N: A0168
O: Europa, Mitteleuropa, Deutschland
N: Joh. Ott III 1544 No. 30
R: Romanze, Ballade, Lied
M: 3/2
L: 1/2
K: G
G | G2G | G2A | _B2B | _B2
B | _B2B | dc2 | _B3 | _B2
B | _B2B | _B2B | A2G | =F2
G | A2_B | c2_B | GA2 | G2

@@@ Tune index: 136
